X: 15116
T: Ghost Town
R: polka
M: 2/4
K: Eminor
|:e>e ed|BA GF|E>G GF|E^D E2|
e>e ed|BA GF|E>G GB|e^d e2:|
|:e>f ed|dc BA|B/^c/d ed|e^d e2|
e>f ed|dc BA|G>F ED|E^D E2:|

